src/helpers/heroicons/solid/arrows-pointing-out.svg

<svg width="24" height="24" viewBox="0 0 24 24" fill="none" xmlns="http://www.w3.org/2000/svg">
<path fill-rule="evenodd" clip-rule="evenodd" d="M15 3.75C15 3.33579 15.3358 3 15.75 3L20.25 3C20.6642 3 21 3.33579 21 3.75V8.25C21 8.66421 20.6642 9 20.25 9C19.8358 9 19.5 8.66421 19.5 8.25V5.56066L15.5303 9.53033C15.2374 9.82322 14.7626 9.82322 14.4697 9.53033C14.1768 9.23744 14.1768 8.76256 14.4697 8.46967L18.4393 4.5H15.75C15.3358 4.5 15 4.16421 15 3.75ZM3 3.75C3 3.33579 3.33579 3 3.75 3H8.25C8.66421 3 9 3.33579 9 3.75C9 4.16421 8.66421 4.5 8.25 4.5H5.56066L9.53033 8.46967C9.82322 8.76256 9.82322 9.23744 9.53033 9.53033C9.23744 9.82322 8.76256 9.82322 8.46967 9.53033L4.5 5.56066V8.25C4.5 8.66421 4.16421 9 3.75 9C3.33579 9 3 8.66421 3 8.25V3.75ZM14.4697 15.5303C14.1768 15.2374 14.1768 14.7626 14.4697 14.4697C14.7626 14.1768 15.2374 14.1768 15.5303 14.4697L19.5 18.4393V15.75C19.5 15.3358 19.8358 15 20.25 15C20.6642 15 21 15.3358 21 15.75V20.25C21 20.6642 20.6642 21 20.25 21H15.75C15.3358 21 15 20.6642 15 20.25C15 19.8358 15.3358 19.5 15.75 19.5H18.4393L14.4697 15.5303ZM9.53033 14.4697C9.82322 14.7626 9.82322 15.2374 9.53033 15.5303L5.56066 19.5H8.25C8.66421 19.5 9 19.8358 9 20.25C9 20.6642 8.66421 21 8.25 21H3.75C3.33579 21 3 20.6642 3 20.25V15.75C3 15.3358 3.33579 15 3.75 15C4.16421 15 4.5 15.3358 4.5 15.75V18.4393L8.46967 14.4697C8.76256 14.1768 9.23744 14.1768 9.53033 14.4697Z" />
</svg>

<svg xmlns="http://www.w3.org/2000/svg" viewBox="0 0 24 24" fill="currentColor" aria-hidden="true" data-slot="icon">
  <path fill-rule="evenodd" d="M15 3.75a.75.75 0 0 1 .75-.75h4.5a.75.75 0 0 1 .75.75v4.5a.75.75 0 0 1-1.5 0V5.56l-3.97 3.97a.75.75 0 1 1-1.06-1.06l3.97-3.97h-2.69a.75.75 0 0 1-.75-.75Zm-12 0A.75.75 0 0 1 3.75 3h4.5a.75.75 0 0 1 0 1.5H5.56l3.97 3.97a.75.75 0 0 1-1.06 1.06L4.5 5.56v2.69a.75.75 0 0 1-1.5 0v-4.5Zm11.47 11.78a.75.75 0 1 1 1.06-1.06l3.97 3.97v-2.69a.75.75 0 0 1 1.5 0v4.5a.75.75 0 0 1-.75.75h-4.5a.75.75 0 0 1 0-1.5h2.69l-3.97-3.97Zm-4.94-1.06a.75.75 0 0 1 0 1.06L5.56 19.5h2.69a.75.75 0 0 1 0 1.5h-4.5a.75.75 0 0 1-.75-.75v-4.5a.75.75 0 0 1 1.5 0v2.69l3.97-3.97a.75.75 0 0 1 1.06 0Z" clip-rule="evenodd"/>
</svg>
